X:132
T:Dan Breen's
T:Breen's
R:reel
D:Chieftains 1
D:Altan: The Red Crow
Z:id:hn-reel-132
M:C|
K:Ador
e2dB ABAG|EAAG A2Bd|e2dB ABAG|1 EGGF G2gf:|2 EDEG G2Bd||
|:e2ge edBd|eA~A2 eA~A2|e2ge edBd|d2ef g2fg:|
P:variations
|:efdB cA{c}BG|EA{c}AG ABcd|~e2dB cA{c}BG|EG{A}GF ~G2 (3Bcd:|
|:e2ge {a}ed (3Bcd|ea{c'}ag efge|~e2ge {a}ed Bc|1 ~d2ef g2fg:|2 d2ef g2 (3Bcd||

